X: 17357
T: High Fiddle, The
R: reel
M: 4/4
K: Amajor
(3Bcd|:eaga efdc|Bcde fgaf|eaga efdc|BcdB cAAa|
eaga efdc|Bcde fgab|ae (3eee (3fga ec|dcBd cAAB:|
|:(3ccc ec acec|(3ddd ad bdad|(3ccc ec acec|faed cAAB:|
|:cA (3AAA cdef|=gd (3ddd faed|cA (3AAA cdea|1 gdBd cAAB:|2 gdBd cA (3Bcd||

